svg/u1f61d.svg

<svg viewBox="0 0 128 128" xmlns="http://www.w3.org/2000/svg" xmlns:xlink="http://www.w3.org/1999/xlink">
  <g id="facial_expressions">
    <g id="gold-2">
      <radialGradient id="face_1_" cx="63.6" cy="-678.9" gradientTransform="matrix(1 0 0 -1 0 -616)" gradientUnits="userSpaceOnUse" r="56.9597">
        <stop offset="0.5" stop-color="#FDE030"/>
        <stop offset="0.92" stop-color="#F7C02B"/>
        <stop offset="1" stop-color="#F4A223"/>
      </radialGradient>
      <path id="face" d="M63.6,118.8c-27.9,0-58-17.5-58-55.9S35.7,7,63.6,7c15.5,0,29.8,5.1,40.4,14.4 c11.5,10.2,17.6,24.6,17.6,41.5s-6.1,31.2-17.6,41.4C93.4,113.6,79,118.8,63.6,118.8z" fill="url(#face_1_)"/>
      <path d="M111.49,29.67c5.33,8.6,8.11,18.84,8.11,30.23c0,16.9-6.1,31.2-17.6,41.4 c-10.6,9.3-25,14.5-40.4,14.5c-18.06,0-37-7.35-48.18-22.94c10.76,17.66,31,25.94,50.18,25.94c15.4,0,29.8-5.2,40.4-14.5 c11.5-10.2,17.6-24.5,17.6-41.4C121.6,50.16,118.13,38.84,111.49,29.67z" fill="#EB8F00"/>
    </g>
    <g id="facial_expressions-2">
      <g id="squinting-face-with-tongue">
        <g id="eyes">
          <path d="M31.53,60.38L43.7,58l-12.55-5.18l-0.42-0.23c-2.04-1.09-2.82-3.62-1.73-5.67c0,0,0,0,0,0 c0.24-0.49,0.58-0.92,1-1.27c2-1.54,4.75-1.66,6.88-0.3l21.27,13c0.52,0.19,0.78,0.76,0.59,1.28c-0.13,0.35-0.44,0.6-0.81,0.65 L35,68.93c-0.16,0.03-0.33,0.08-0.48,0.15c-3,0.84-6.33-0.88-6.79-3.78C27.4,63.1,29.1,61.05,31.53,60.38z" fill="#422B0D"/>
          <path d="M96.47,60.13L84.3,57.78l12.55-5.21l0.42-0.23c2.04-1.09,2.82-3.62,1.73-5.67c0,0,0,0,0,0 c-0.24-0.49-0.58-0.92-1-1.27c-2-1.54-4.75-1.66-6.88-0.3l-21.27,13c-0.52,0.19-0.78,0.76-0.59,1.28 c0.13,0.35,0.44,0.6,0.81,0.65L93,68.68c0.16,0.03,0.33,0.08,0.48,0.15c3,0.84,6.33-0.88,6.79-3.78 C100.6,62.85,98.9,60.8,96.47,60.13z" fill="#422B0D"/>
        </g>
      </g>
      <g id="mouth">
        <path d="M62.82,80.43c-11.5,0.06-22.98-0.9-34.31-2.89c-1.9-0.36-3.74,0.89-4.1,2.79 c-0.09,0.44-0.09,0.9,0,1.34c3.26,16,19,29.13,38.4,29.13c21.21,0,35.48-13.57,38.45-29.19c0.34-1.91-0.92-3.73-2.83-4.08 c-0.42-0.07-0.86-0.07-1.28,0C85.82,79.52,74.33,80.49,62.82,80.43z" fill="#422B0D"/>
        <g>
          <defs>
            <path id="SVGID_1_" d="M62.82,80.43c-11.5,0.06-22.98-0.9-34.31-2.89c-1.9-0.36-3.74,0.89-4.1,2.79c-0.09,0.44-0.09,0.9,0,1.34 c3.26,16,19,29.13,38.4,29.13c21.21,0,35.48-13.57,38.45-29.19c0.34-1.91-0.92-3.73-2.83-4.08c-0.42-0.07-0.86-0.07-1.28,0 C85.82,79.52,74.33,80.49,62.82,80.43z"/>
          </defs>
          <clipPath id="SVGID_2_">
            <use overflow="visible" xlink:href="#SVGID_1_"/>
          </clipPath>
          <g clip-path="url(#SVGID_2_)">
            <path d="M62.82,80.43c-11.5,0.06-22.98-0.9-34.31-2.89c-1.9-0.36-3.74,0.89-4.1,2.79 c-0.09,0.44-0.09,0.9,0,1.34c3.26,16,19,29.13,38.4,29.13c21.21,0,35.48-13.57,38.45-29.19c0.34-1.91-0.92-3.73-2.83-4.08 c-0.42-0.07-0.86-0.07-1.28,0C85.82,79.52,74.33,80.49,62.82,80.43z" fill="#422B0D"/>
          </g>
        </g>
      </g>
      <path d="M44.74,87.83v21c0.01,9.48,7.69,17.16,17.17,17.17h3.27c9.48,0,17.17-7.69,17.17-17.17V87.61 C63.54,91.31,49.48,88.9,44.74,87.83z" fill="#FF4081"/>
      <path d="M65.54,85h-4c-5.73,0-11.38-0.27-16.81-0.72v3.55c4.74,1.07,18.8,3.48,37.61-0.22v-3.46 C76.93,84.64,71.29,84.93,65.54,85z" fill="#FF4081"/>
      <path d="M65.54,85h-4c-5.73,0-11.38-0.27-16.81-0.72v3.55 c4.74,1.07,18.8,3.48,37.61-0.22v-3.46C76.93,84.64,71.29,84.93,65.54,85z" enable-background="new " fill="#AB3F2E" opacity="0.3"/>
    </g>
    <path d="M63.55,106.25c1.1,0,2-0.9,2-2c0,0,0,0,0,0l0,0V85h-4v19.24 c0,1.1,0.9,2,2,2L63.55,106.25z" enable-background="new " fill="#AB3F2E" opacity="0.3"/>
  </g>
</svg>

<svg viewBox="0 0 128 128" xmlns="http://www.w3.org/2000/svg">
  <defs>
    <radialGradient id="face_1_" cx="63.6" cy="-62.9" gradientTransform="matrix(1 0 0 -1 0 0)" gradientUnits="userSpaceOnUse" r="56.9597">
      <stop offset="0.5" stop-color="#FDE030"/>
      <stop offset="0.92" stop-color="#F7C02B"/>
      <stop offset="1" stop-color="#F4A223"/>
    </radialGradient>
  </defs>
  <path id="face" d="M63.6,118.8 C35.7,118.8 5.6,101.3 5.6,62.9 C5.6,24.5 35.7,7 63.6,7 C79.1,7 93.4,12.1 104,21.4 C115.5,31.6 121.6,46 121.6,62.9 C121.6,79.8 115.5,94.1 104,104.3 C93.4,113.6 79,118.8 63.6,118.8 Z" fill="url(#face_1_)"/>
  <path d="M111.49,29.67 C116.82,38.27 119.6,48.51 119.6,59.9 C119.6,76.8 113.5,91.1 102,101.3 C91.4,110.6 77,115.8 61.6,115.8 C43.54,115.8 24.6,108.45 13.42,92.86 C24.18,110.52 44.42,118.8 63.6,118.8 C79,118.8 93.4,113.6 104,104.3 C115.5,94.1 121.6,79.8 121.6,62.9 C121.6,50.16 118.13,38.84 111.49,29.67 Z" fill="#EB8F00"/>
  <path d="M31.53,60.38 L43.7,58 L31.15,52.82 L30.73,52.59 C28.69,51.5 27.91,48.97 29,46.92 C29,46.92 29,46.92 29,46.92 C29.24,46.43 29.58,46 30,45.65 C32,44.11 34.75,43.99 36.88,45.35 L58.15,58.35 C58.67,58.54 58.93,59.11 58.74,59.63 C58.61,59.98 58.3,60.23 57.93,60.28 L35,68.93 C34.84,68.96 34.67,69.01 34.52,69.08 C31.52,69.92 28.19,68.2 27.73,65.3 C27.4,63.1 29.1,61.05 31.53,60.38 Z" fill="#422B0D"/>
  <path d="M96.47,60.13 L84.3,57.78 L96.85,52.57 L97.27,52.34 C99.31,51.25 100.09,48.72 99,46.67 C99,46.67 99,46.67 99,46.67 C98.76,46.18 98.42,45.75 98,45.4 C96,43.86 93.25,43.74 91.12,45.1 L69.85,58.1 C69.33,58.29 69.07,58.86 69.26,59.38 C69.39,59.73 69.7,59.98 70.07,60.03 L93,68.68 C93.16,68.71 93.33,68.76 93.48,68.83 C96.48,69.67 99.81,67.95 100.27,65.05 C100.6,62.85 98.9,60.8 96.47,60.13 Z" fill="#422B0D"/>
  <path d="M62.82,80.43 C51.32,80.49 39.84,79.53 28.51,77.54 C26.61,77.18 24.77,78.43 24.41,80.33 C24.32,80.77 24.32,81.23 24.41,81.67 C27.67,97.67 43.41,110.8 62.81,110.8 C84.02,110.8 98.29,97.23 101.26,81.61 C101.6,79.7 100.34,77.88 98.43,77.53 C98.01,77.46 97.57,77.46 97.15,77.53 C85.82,79.52 74.33,80.49 62.82,80.43 Z" fill="#422B0D"/>
  <path d="M62.82,80.43 C74.33,80.49 85.82,79.52 97.15,77.53 C97.57,77.46 98.01,77.46 98.43,77.53 C100.34,77.88 101.6,79.7 101.26,81.61 C98.29,97.23 84.02,110.8 62.81,110.8 C43.41,110.8 27.67,97.67 24.41,81.67 C24.32,81.23 24.32,80.77 24.41,80.33 C24.77,78.43 26.61,77.18 28.51,77.54 C39.84,79.53 51.32,80.49 62.82,80.43 Z" fill="#422B0D"/>
  <path d="M44.74,87.83 L44.74,108.83 C44.75,118.31 52.43,125.99 61.91,126 L65.18,126 C74.66,126 82.35,118.31 82.35,108.83 L82.35,87.61 C63.54,91.31 49.48,88.9 44.74,87.83 Z" fill="#FF4081"/>
  <path d="M65.54,85 L61.54,85 C55.81,85 50.16,84.73 44.73,84.28 L44.73,87.83 C49.47,88.9 63.53,91.31 82.34,87.61 L82.34,84.15 C76.93,84.64 71.29,84.93 65.54,85 Z" fill="#FF4081"/>
  <path d="M65.54,85 L61.54,85 C55.81,85 50.16,84.73 44.73,84.28 L44.73,87.83 C49.47,88.9 63.53,91.31 82.34,87.61 L82.34,84.15 C76.93,84.64 71.29,84.93 65.54,85 Z" fill="#AB3F2E" opacity="0.3"/>
  <path d="M63.55,106.25 C64.65,106.25 65.55,105.35 65.55,104.25 C65.55,104.25 65.55,104.25 65.55,104.25 L65.55,104.25 L65.55,85 L61.55,85 L61.55,104.24 C61.55,105.34 62.45,106.24 63.55,106.24 L63.55,106.25 Z" fill="#AB3F2E" opacity="0.3"/>
</svg>
